svg/services/Decoration.svg

<svg width="90" height="87" viewBox="0 0 90 87" fill="none" xmlns="http://www.w3.org/2000/svg">
<path d="M78.4591 2.05892C78.3972 1.73498 78.272 1.42643 78.0907 1.15094C77.9094 0.875457 77.6755 0.638444 77.4024 0.453478C77.1294 0.268512 76.8225 0.139226 76.4995 0.0730251C76.1764 0.00682384 75.8434 0.00500767 75.5196 0.0676806C70.2097 1.10017 64.7943 1.87981 59.4212 2.40659C55.7758 2.75427 52.0462 2.98605 48.443 3.09141C46.9786 3.09141 45.5668 3.15462 44.2288 3.15462H42.227C34.4218 3.11234 26.6363 2.36834 18.9643 0.931602C16.9837 0.541784 15.8037 0.236251 15.319 0.120359C15.0007 0.0170572 14.6646 -0.0203368 14.3313 0.0104556C13.998 0.041248 13.6745 0.139582 13.3805 0.299465C13.0896 0.466226 12.8346 0.688943 12.6303 0.954761C12.426 1.22058 12.2763 1.52424 12.1899 1.8482C12.1013 2.16569 12.0762 2.49754 12.116 2.82475C12.1557 3.15197 12.2596 3.46813 12.4217 3.75515C12.5797 4.04286 12.7934 4.29627 13.0502 4.50065C13.307 4.70504 13.6019 4.85631 13.9178 4.94568C13.9178 4.94568 15.3612 5.35657 18.0688 5.88335C22.9961 6.81053 27.9742 7.44379 32.9767 7.77976V7.77976C35.4315 8.10637 43.7336 8.19065 43.8284 8.19065H44.1656C45.5703 8.19065 47.0242 8.16958 48.5273 8.12744C52.2253 8.02208 55.9865 7.7903 59.7056 7.43209C65.3211 6.8737 70.9471 6.06245 76.4784 4.98782C76.8016 4.92725 77.1096 4.80318 77.3845 4.62277C77.6594 4.44236 77.8958 4.20921 78.0801 3.93681C78.2643 3.66441 78.3926 3.35817 78.4577 3.03583C78.5227 2.71348 78.5232 2.38144 78.4591 2.05892V2.05892Z" fill="#E95C6D"/>
<path d="M77.8164 18.3047L75.8567 8.31689C74.1289 8.63296 72.3905 8.92796 70.6521 9.20189L72.0218 16.1027L70.5889 15.5759C69.9771 15.3509 69.3137 15.3057 68.677 15.4457C68.0404 15.5857 67.4571 15.9051 66.9963 16.3661L66.0164 17.3354L64.5415 10.0553C63.0349 10.2449 61.5283 10.4029 60.0217 10.5504H59.2842L61.5283 21.813C61.6619 22.4105 61.9533 22.9611 62.3721 23.4077C62.7909 23.8543 63.3217 24.1804 63.9093 24.3521C64.2201 24.4474 64.543 24.4971 64.8681 24.4996C65.776 24.4923 66.6438 24.1247 67.2807 23.4777L69.862 20.907L73.2966 22.1712C73.4378 22.2223 73.5821 22.2645 73.7285 22.2977H73.9814H74.3607H74.5924H74.8874C75.4739 22.2333 76.0334 22.0166 76.5102 21.6692C76.9871 21.3217 77.3647 20.8555 77.6056 20.317C77.8871 19.6854 77.9609 18.9808 77.8164 18.3047V18.3047Z" fill="#E95C6D"/>
<path d="M48.3583 11.2567V18.8213L47.1467 18.0416C46.5939 17.6959 45.955 17.5125 45.3029 17.5125C44.6509 17.5125 44.012 17.6959 43.4592 18.0416L42.2371 18.8213V11.2988C40.8885 11.2988 38.8762 11.2356 36.9692 11.1619V22.2032C36.9709 22.8166 37.1372 23.4182 37.4509 23.9453C37.7646 24.4724 38.2141 24.9055 38.7524 25.1994C39.2908 25.4934 39.8982 25.6373 40.5112 25.6162C41.1241 25.5951 41.7202 25.4097 42.2371 25.0794L45.3029 23.1198L48.3688 25.0794C48.5023 25.1687 48.6433 25.2462 48.7902 25.3112C49.2363 25.5157 49.7218 25.62 50.2125 25.6168C50.6612 25.6181 51.1057 25.5308 51.5205 25.3597C51.9353 25.1887 52.3121 24.9373 52.6294 24.62C52.9466 24.3028 53.198 23.9259 53.3691 23.5112C53.5401 23.0964 53.6275 22.6519 53.6261 22.2032V11.0249C51.9614 11.1197 50.2863 11.204 48.6216 11.2462L48.3583 11.2567Z" fill="#E95C6D"/>
<path d="M24.6005 17.3358L23.6207 16.3665C23.3023 16.0487 22.9244 15.7967 22.5086 15.625C22.0929 15.4532 21.6473 15.3651 21.1975 15.3656C20.7949 15.3668 20.3956 15.4381 20.0175 15.5763L18.6057 16.1031L19.9437 9.43407C19.1009 9.28657 18.258 9.13907 17.4573 8.98103C16.3616 8.72818 15.4661 8.57014 14.7497 8.41211L12.79 18.2102C12.6582 18.8098 12.6906 19.4339 12.8837 20.0167C13.0768 20.5994 13.4235 21.1193 13.8872 21.5216C14.351 21.9239 14.9146 22.1936 15.5188 22.3025C16.123 22.4113 16.7454 22.3552 17.3203 22.14L20.7339 20.8863L23.3151 23.4781C23.9548 24.1184 24.8227 24.4784 25.7278 24.4789C26.0563 24.4771 26.3828 24.4274 26.6971 24.3314C27.2919 24.1564 27.8279 23.8227 28.2474 23.3661C28.6668 22.9095 28.954 22.3472 29.0781 21.7397L31.2906 10.8353C29.5417 10.6983 27.7717 10.5192 26.0228 10.3085L24.6005 17.3358Z" fill="#E95C6D"/>
<path d="M48.464 32.1695L47.2841 32.9597C46.7081 33.3249 46.0374 33.5126 45.3555 33.4995C44.6736 33.4864 44.0106 33.273 43.4491 32.886L42.2902 32.0747C42.1741 31.9933 42.0333 31.9547 41.8919 31.9657C41.7505 31.9767 41.6173 32.0365 41.5152 32.1349C41.4131 32.2333 41.3484 32.3641 41.3321 32.505C41.3159 32.6459 41.3492 32.788 41.4262 32.907L42.1427 34.0765C42.5191 34.6432 42.7199 35.3084 42.7199 35.9887C42.7199 36.669 42.5191 37.3342 42.1427 37.9009L41.2998 39.0704C41.2184 39.1865 41.1798 39.3273 41.1908 39.4686C41.2018 39.61 41.2616 39.7432 41.36 39.8453C41.4584 39.9474 41.5892 40.0122 41.7301 40.0284C41.871 40.0446 42.0131 40.0114 42.1321 39.9343L43.3227 39.1757C43.8987 38.8105 44.5693 38.6228 45.2512 38.6359C45.9331 38.649 46.5961 38.8624 47.1576 39.2495L48.3165 40.0502C48.4326 40.1316 48.5734 40.1702 48.7148 40.1592C48.8562 40.1482 48.9894 40.0884 49.0915 39.99C49.1936 39.8916 49.2583 39.7608 49.2746 39.6199C49.2908 39.479 49.2575 39.3369 49.1805 39.2179L48.464 38.0273C48.0876 37.4607 47.8868 36.7955 47.8868 36.1151C47.8868 35.4348 48.0876 34.7696 48.464 34.2029L49.2647 33.0335C49.335 32.9197 49.3661 32.7861 49.3531 32.6531C49.3402 32.52 49.284 32.3949 49.1931 32.2968C49.1022 32.1988 48.9817 32.1332 48.85 32.1103C48.7184 32.0873 48.5828 32.1081 48.464 32.1695Z" fill="#E95C6D"/>
<path d="M29.4998 47.1828C29.1369 47.5472 28.89 48.0109 28.7905 48.5154C28.6909 49.0199 28.743 49.5426 28.9403 50.0175C29.1375 50.4924 29.4711 50.8982 29.8988 51.1837C30.3265 51.4692 30.8293 51.6216 31.3435 51.6216C31.8578 51.6216 32.3605 51.4692 32.7882 51.1837C33.2159 50.8982 33.5495 50.4924 33.7467 50.0175C33.944 49.5426 33.9961 49.0199 33.8966 48.5154C33.797 48.0109 33.5502 47.5472 33.1872 47.1828C32.9455 46.9401 32.6581 46.7475 32.3417 46.6161C32.0253 46.4846 31.6861 46.417 31.3435 46.417C31.0009 46.417 30.6617 46.4846 30.3453 46.6161C30.0289 46.7475 29.7416 46.9401 29.4998 47.1828Z" fill="#E95C6D"/>
<path d="M57.4612 47.1828C57.0983 47.5472 56.8515 48.0109 56.7519 48.5154C56.6523 49.0199 56.7044 49.5426 56.9017 50.0175C57.099 50.4924 57.4325 50.8982 57.8602 51.1837C58.288 51.4692 58.7907 51.6216 59.3049 51.6216C59.8192 51.6216 60.3219 51.4692 60.7496 51.1837C61.1774 50.8982 61.5109 50.4924 61.7082 50.0175C61.9054 49.5426 61.9576 49.0199 61.858 48.5154C61.7584 48.0109 61.5116 47.5472 61.1487 47.1828C60.9069 46.9401 60.6196 46.7475 60.3032 46.6161C59.9868 46.4846 59.6475 46.417 59.3049 46.417C58.9623 46.417 58.6231 46.4846 58.3067 46.6161C57.9903 46.7475 57.703 46.9401 57.4612 47.1828Z" fill="#E95C6D"/>
<path d="M21.5137 31.6852C20.7754 31.6914 20.0554 31.9161 19.4445 32.3308C18.8336 32.7456 18.3591 33.3319 18.0809 34.0158C17.8026 34.6998 17.7331 35.4508 17.8809 36.1742C18.0288 36.8976 18.3875 37.5611 18.9118 38.081C19.4361 38.6009 20.1026 38.954 20.8272 39.0958C21.5518 39.2375 22.3022 39.1616 22.9838 38.8777C23.6654 38.5937 24.2477 38.1143 24.6573 37.4999C25.0669 36.8856 25.2854 36.1637 25.2855 35.4253C25.2855 34.9315 25.1877 34.4426 24.9978 33.9867C24.8078 33.5309 24.5295 33.1171 24.1789 32.7694C23.8282 32.4217 23.4122 32.1469 22.9547 31.9608C22.4973 31.7747 22.0075 31.681 21.5137 31.6852Z" fill="#E95C6D"/>
<path d="M69.0922 31.6851C68.3525 31.6851 67.6294 31.9044 67.0143 32.3154C66.3992 32.7264 65.9198 33.3105 65.6368 33.9939C65.3537 34.6773 65.2796 35.4294 65.4239 36.1549C65.5682 36.8804 65.9244 37.5468 66.4475 38.0699C66.9706 38.593 67.637 38.9492 68.3625 39.0935C69.0881 39.2378 69.8401 39.1637 70.5235 38.8807C71.2069 38.5976 71.791 38.1182 72.202 37.5031C72.613 36.8881 72.8323 36.1649 72.8323 35.4252C72.8323 34.4333 72.4383 33.4819 71.7369 32.7805C71.0355 32.0791 70.0842 31.6851 69.0922 31.6851V31.6851Z" fill="#E95C6D"/>
<path fill-rule="evenodd" clip-rule="evenodd" d="M83.4779 52.1249C87.0796 55.7265 86.5169 62.1305 82.2208 66.4266C78.2551 70.3922 72.4942 71.1782 68.7988 68.4429L68.341 70.16C68.053 71.2385 67.6421 71.2117 66.9611 70.5307L66.548 70.1176L56.7835 79.8821C56.6674 79.9982 56.4754 79.9982 56.3593 79.8821L55.7229 79.2457C55.6068 79.1296 55.6068 78.9376 55.7229 78.8215L65.4874 69.057L65.1346 68.7042L64.784 68.3536C64.2593 67.8512 64.7907 67.3912 65.3556 67.2595L67.1821 66.8352C64.42 63.1398 65.1993 57.3588 69.1761 53.382C73.4722 49.0859 79.8762 48.5232 83.4779 52.1249Z" fill="#E95C6D"/>
<path fill-rule="evenodd" clip-rule="evenodd" d="M6.52286 52.1251C10.1248 48.5231 16.5293 49.0859 20.8258 53.3823C24.7918 57.3483 25.5778 63.1097 22.8423 66.8054L24.5595 67.2632C25.6381 67.5513 25.6113 67.9622 24.9302 68.6433L24.5171 69.0564L34.2824 78.8217C34.3985 78.9378 34.3985 79.1298 34.2824 79.246L33.646 79.8824C33.5298 79.9985 33.3378 79.9985 33.2217 79.8824L23.4564 70.1171L23.1035 70.4699L22.753 70.8205C22.2505 71.3453 21.7905 70.8138 21.6587 70.2489L21.2345 68.4222C17.5387 71.1845 11.7572 70.4052 7.78008 66.428C3.48362 62.1316 2.92088 55.7271 6.52286 52.1251Z" fill="#E95C6D"/>
<path fill-rule="evenodd" clip-rule="evenodd" d="M45.161 46.6562C49.1551 46.6562 52.3939 50.519 52.3939 55.2831C52.3939 59.6808 49.6354 63.3108 46.0698 63.8432L46.7681 65.0491C47.2063 65.8068 46.9637 66.0197 46.2085 66.0197H45.7504V76.8479C45.7504 76.9767 45.6439 77.0831 45.5151 77.0831H44.8094C44.6807 77.0831 44.5742 76.9767 44.5742 76.8479V66.0197H44.183H43.7942C43.2247 66.0321 43.2643 65.4824 43.5045 65.0961L44.282 63.8481C40.7015 63.3306 37.9282 59.6932 37.9282 55.2831C37.9282 50.519 41.167 46.6562 45.161 46.6562Z" fill="#E95C6D"/>
</svg>

<svg width="90" height="87" fill="none" xmlns="http://www.w3.org/2000/svg"><path d="M78.46 2.059A2.508 2.508 0 0075.52.068 173.211 173.211 0 0159.42 2.407c-3.645.347-7.375.58-10.978.684-1.464 0-2.876.064-4.214.064h-2.002A130.21 130.21 0 0118.964.932c-1.98-.39-3.16-.696-3.645-.812A2.465 2.465 0 0013.38.3a2.538 2.538 0 00-1.19 1.548 2.507 2.507 0 00.232 1.907 2.476 2.476 0 001.496 1.19s1.443.412 4.15.938c4.928.928 9.906 1.56 14.909 1.897 2.455.326 10.757.41 10.851.41h.338c1.404 0 2.858-.02 4.361-.063 3.698-.105 7.46-.337 11.179-.695a183.214 183.214 0 0016.772-2.444 2.486 2.486 0 001.981-2.93zM77.816 18.305l-1.96-9.988c-1.727.316-3.465.611-5.204.885l1.37 6.9-1.433-.526a3.415 3.415 0 00-3.593.79l-.98.97-1.475-7.28c-1.506.189-3.013.347-4.52.494h-.737l2.244 11.263a3.423 3.423 0 002.381 2.54c.311.094.634.144.96.147a3.424 3.424 0 002.412-1.022l2.581-2.571 3.435 1.264c.14.051.285.094.431.127h1.159a3.383 3.383 0 002.719-1.981 3.266 3.266 0 00.21-2.012zM48.358 11.257v7.564l-1.211-.78a3.477 3.477 0 00-3.688 0l-1.222.78V11.3c-1.349 0-3.36-.063-5.268-.137v11.041a3.425 3.425 0 005.268 2.876l3.066-1.96 3.066 1.96a3.36 3.36 0 001.844.537 3.404 3.404 0 003.413-3.413V11.025c-1.665.095-3.34.179-5.004.221l-.264.01zM24.6 17.336l-.98-.97a3.425 3.425 0 00-3.603-.79l-1.411.527 1.338-6.669c-.843-.147-1.686-.295-2.487-.453-1.095-.253-1.99-.41-2.707-.569l-1.96 9.798a3.414 3.414 0 004.53 3.93l3.414-1.254 2.581 2.592c.64.64 1.508 1 2.413 1 .328 0 .655-.05.97-.147a3.414 3.414 0 002.38-2.591l2.213-10.905a127.409 127.409 0 01-5.268-.527L24.6 17.337zM48.464 32.17l-1.18.79a3.477 3.477 0 01-3.835-.074l-1.159-.811a.611.611 0 00-.864.832l.717 1.17a3.456 3.456 0 010 3.824l-.843 1.17a.611.611 0 00.832.863l1.19-.758a3.477 3.477 0 013.836.073l1.158.801a.611.611 0 00.864-.832l-.716-1.19a3.456 3.456 0 010-3.825l.8-1.17a.61.61 0 00-.8-.864zM29.5 47.183a2.602 2.602 0 103.687 3.673 2.602 2.602 0 00-3.687-3.673zM57.461 47.183a2.603 2.603 0 103.689 3.673 2.603 2.603 0 00-3.689-3.673zM21.514 31.685a3.74 3.74 0 10.063 7.48 3.74 3.74 0 00-.063-7.48zM69.092 31.685a3.74 3.74 0 100 7.48 3.74 3.74 0 000-7.48z" fill="#E95C6D"/><path fill-rule="evenodd" clip-rule="evenodd" d="M83.478 52.125c3.602 3.602 3.039 10.005-1.257 14.302-3.966 3.965-9.727 4.751-13.422 2.016l-.458 1.717c-.288 1.079-.699 1.052-1.38.37l-.413-.412-9.765 9.764a.302.302 0 01-.424 0l-.636-.636a.302.302 0 010-.424l9.764-9.765-.352-.353-.351-.35c-.525-.503.007-.963.572-1.094l1.826-.425C64.42 63.14 65.2 57.36 69.176 53.382c4.296-4.296 10.7-4.859 14.302-1.257zM6.523 52.125c3.602-3.602 10.006-3.04 14.303 1.257 3.966 3.966 4.752 9.728 2.016 13.423l1.718.458c1.078.288 1.051.7.37 1.38l-.413.413 9.765 9.766a.302.302 0 010 .424l-.636.636a.302.302 0 01-.424 0l-9.766-9.765-.352.353-.351.35c-.503.525-.962-.006-1.094-.571l-.424-1.827c-3.696 2.763-9.478 1.983-13.455-1.994-4.296-4.296-4.86-10.7-1.257-14.303zM45.161 46.656c3.994 0 7.233 3.863 7.233 8.627 0 4.398-2.759 8.028-6.324 8.56l.698 1.206c.438.758.196.97-.56.97h-.458v10.829a.237.237 0 01-.235.235h-.706a.237.237 0 01-.235-.235V66.02h-.78c-.57.012-.53-.538-.29-.924l.778-1.248c-3.58-.517-6.354-4.155-6.354-8.565 0-4.764 3.239-8.627 7.233-8.627z" fill="#E95C6D"/></svg>
